X: 1
T: A Quantum Singularity
M: 6/8
L: 1/8
R: jig
K: Dmaj
|: F | A2 d dcB | A2 F D2 E | F2 D A2 F | G2 E E2 F |
G2 e edc | BAG E2 F | G2 E BAG | F2 D D2 :|
e | f2 d dAF | f2 d d2 e | fed cBA | G2 E E2 f |
g2 e ecA | g2 e e2 f | g>fe dcB | AB/A/G FGA |
f2 d d2 e | fd/d/d d2 e | fed cBA | G2 E E3 |
gbg f/g/af | ege d2 A | cc/B/A GFE | F2 D- D2 |]
